build/img/service-montage.svg

<svg width="51" height="53" viewBox="0 0 51 53" fill="none" xmlns="http://www.w3.org/2000/svg">
<path d="M25.5316 0.09375C27.5195 0.116661 29.4996 0.346335 31.4399 0.779062C32.2869 0.96796 32.9203 1.67409 33.0165 2.53657L33.4775 6.67177C33.6861 8.57045 35.2892 10.0085 37.2003 10.0105C37.714 10.0113 38.2222 9.90436 38.6969 9.69434L42.4902 8.02797C43.2792 7.6814 44.201 7.87035 44.7899 8.49938C47.5313 11.4272 49.5729 14.9385 50.7612 18.7693C51.0174 19.5953 50.7225 20.493 50.0263 21.0062L46.664 23.4845C45.7048 24.1892 45.1384 25.3083 45.1384 26.4985C45.1384 27.6887 45.7048 28.8078 46.6661 29.5141L50.0313 31.9933C50.7277 32.5064 51.0228 33.4042 50.7666 34.2304C49.5788 38.0605 47.5383 41.5716 44.7986 44.4998C44.2101 45.1288 43.2891 45.3182 42.5002 44.9726L38.6914 43.3039C37.6017 42.827 36.3503 42.8969 35.3205 43.492C34.2907 44.0871 33.6054 45.1366 33.4746 46.3189L33.0166 50.4536C32.9222 51.3062 32.3024 52.0076 31.4679 52.2061C27.545 53.1394 23.4579 53.1394 19.535 52.2061C18.7005 52.0076 18.0807 51.3062 17.9862 50.4536L17.529 46.325C17.3947 45.1449 16.7083 44.0987 15.6794 43.5056C14.6505 42.9125 13.4011 42.8429 12.315 43.3171L8.50542 44.9861C7.71634 45.3319 6.795 45.1422 6.20661 44.5129C3.46535 41.5813 1.42481 38.066 0.238577 34.2317C-0.0169238 33.4059 0.278282 32.5088 0.974282 31.996L4.34164 29.5152C5.30077 28.8105 5.86723 27.6914 5.86723 26.5012C5.86723 25.3111 5.30077 24.1919 4.34038 23.4863L0.975136 21.0098C0.278104 20.4968 -0.0173739 19.5986 0.239027 18.772C1.42731 14.9412 3.46892 11.4299 6.21025 8.50209C6.79922 7.87305 7.72099 7.68411 8.50994 8.03068L12.3026 9.69675C13.3939 10.1757 14.6485 10.1033 15.683 9.49896C16.7131 8.90149 17.3988 7.85102 17.5312 6.66861L17.9918 2.53657C18.088 1.67366 18.722 0.967298 19.5696 0.778802C21.5122 0.346762 23.4944 0.117187 25.5316 0.09375ZM25.5321 4.15597C24.3024 4.17045 23.0762 4.27658 21.8636 4.47317L21.5686 7.11967C21.2928 9.58288 19.8654 11.7694 17.7269 13.0099C15.5752 14.2669 12.9519 14.4182 10.6694 13.4165L8.23653 12.3478C6.68755 14.2278 5.45466 16.3474 4.58632 18.6233L6.74702 20.2134C8.74797 21.6835 9.92973 24.0183 9.92973 26.5012C9.92973 28.9842 8.74797 31.3189 6.74913 32.7875L4.58503 34.3819C5.45262 36.6618 6.6857 38.7853 8.23574 40.669L10.6871 39.595C12.957 38.604 15.5624 38.7491 17.7082 39.9859C19.854 41.2228 21.2854 43.4047 21.5661 45.8717L21.8612 48.5363C24.2707 48.946 26.7322 48.946 29.1416 48.5363L29.4367 45.8718C29.7097 43.4056 31.1394 41.2162 33.2878 39.9747C35.4361 38.7331 38.0469 38.5874 40.3208 39.5825L42.7703 40.6556C44.3189 38.7749 45.5515 36.6548 46.4197 34.3785L44.2586 32.7864C42.2576 31.3162 41.0759 28.9815 41.0759 26.4985C41.0759 24.0156 42.2576 21.6808 44.2561 20.2125L46.4143 18.6217C45.5459 16.3454 44.3129 14.2254 42.7636 12.3451L40.3357 13.4116C39.3462 13.8494 38.276 14.0747 37.195 14.073C33.2146 14.0689 29.8741 11.0721 29.4396 7.1187L29.1446 4.47231C27.938 4.27595 26.7245 4.17011 25.5321 4.15597ZM29.7663 15.6666C29.9546 15.6666 30.1348 15.7318 30.2782 15.8481L30.4081 15.9808L37.9315 25.6694C38.2567 26.0883 38.3032 26.6504 38.0709 27.1102L37.9315 27.3305L30.4081 37.0191C30.2926 37.1678 30.1305 37.2701 29.9508 37.3121L29.7663 37.3333H22.4413C22.2587 37.3333 22.0814 37.2717 21.938 37.1586C21.636 36.9204 21.5486 36.511 21.7049 36.177L21.8034 36.0175L29.3135 26.4999L20.9032 15.6666H29.7663ZM19.2055 17.8441L23.7826 23.8051L21.6665 26.4999L23.3966 28.7032C23.629 28.9993 23.6277 29.4162 23.3934 29.7108L19.7743 34.2604C19.4949 34.6116 18.9838 34.6698 18.6326 34.3905L18.4988 34.2557L13.0776 27.3352C12.6934 26.8447 12.6935 26.1552 13.0779 25.6648L19.2055 17.8441Z" fill="white"/>
</svg>

<svg width="51" height="53" fill="none" xmlns="http://www.w3.org/2000/svg"><path d="M25.532.094a28.66 28.66 0 015.908.685 2.03 2.03 0 011.576 1.758l.462 4.135A3.748 3.748 0 0037.2 10.01a3.68 3.68 0 001.497-.317l3.793-1.666a2.031 2.031 0 012.3.471 26.522 26.522 0 015.971 10.27 2.031 2.031 0 01-.735 2.237l-3.362 2.479a3.74 3.74 0 00.002 6.03l3.365 2.478c.697.513.992 1.411.736 2.237a26.536 26.536 0 01-5.968 10.27 2.031 2.031 0 01-2.299.473l-3.809-1.67a3.74 3.74 0 00-5.216 3.016l-.458 4.135a2.031 2.031 0 01-1.55 1.752c-3.922.933-8.01.933-11.932 0a2.031 2.031 0 01-1.549-1.752l-.457-4.129a3.743 3.743 0 00-5.214-3.008l-3.81 1.67a2.032 2.032 0 01-2.298-.474 26.536 26.536 0 01-5.968-10.28 2.031 2.031 0 01.735-2.236l3.368-2.48a3.74 3.74 0 00-.002-6.03L.975 21.01a2.031 2.031 0 01-.736-2.238A26.523 26.523 0 016.21 8.502a2.031 2.031 0 012.3-.471l3.793 1.666a3.727 3.727 0 003.38-.198 3.756 3.756 0 001.848-2.83l.46-4.132A2.033 2.033 0 0119.57.779a28.884 28.884 0 015.962-.685zm0 4.062c-1.23.014-2.456.12-3.668.317l-.295 2.647a7.816 7.816 0 01-3.842 5.89 7.787 7.787 0 01-7.058.406l-2.432-1.068a22.46 22.46 0 00-3.65 6.275l2.16 1.59a7.802 7.802 0 01.002 12.575l-2.164 1.594c.868 2.28 2.1 4.403 3.65 6.287l2.452-1.074a7.806 7.806 0 0110.88 6.277l.294 2.664c2.41.41 4.871.41 7.28 0l.296-2.664a7.802 7.802 0 0110.884-6.29l2.45 1.074a22.517 22.517 0 003.649-6.277l-2.161-1.593a7.803 7.803 0 01-.003-12.574l2.158-1.59a22.46 22.46 0 00-3.65-6.277l-2.428 1.067c-.99.437-2.06.663-3.141.661a7.81 7.81 0 01-7.755-6.954l-.295-2.647a24.346 24.346 0 00-3.613-.316zm4.234 11.51c.189 0 .369.066.512.182l.13.133 7.523 9.688c.326.42.372.981.14 1.441l-.14.22-7.523 9.69a.813.813 0 01-.457.292l-.185.021h-7.325a.813.813 0 01-.736-1.156l.098-.16 7.51-9.517-8.41-10.833h8.863zm-10.56 2.178l4.577 5.961-2.117 2.695 1.73 2.203a.813.813 0 01-.003 1.008l-3.619 4.55a.813.813 0 01-1.141.13l-.134-.135-5.421-6.92a1.354 1.354 0 010-1.671l6.128-7.82z" fill="#fff"/></svg>
